X: 110
M:6/8
K:D
vA/G/|F2D DFA|dAF AFD|EGE CEC|EGE CEG|
u(a/g/)|f2d dfa|afd dfa|e2c ceg|gec efg|
faf edc|dcB AFA|(B/c/)dB AFA|dAF D2:|

